X:525
T:Vals # 525
M:3/4
L:1/8
K: C
Q: 160
C2E2G2| e3de2|C2E2G2|d3cd2| g2a2g2| b3ag2|def2d2e4c2|
C2E2G2| e3de2|C2E2G2|d3cd2| g2a2a2| b3ag2| def2B2| c4z2:|
|:[K:F] a4f2| c4A2|cd ef ga| b4z2| d'4c'2|b4g2|f2c2A2| F4z2|
a4f2| c4A2|cd ef ga| b4z2| d'3c' bg|e3c Bc|e3d BG| F4z2:|
|: A2B2c2| c3dc2| f2e2d2|(cd) cB c2|g2e2c2|d2B2G2|f2c2A2|(FG) FEF2|
A2B2c2| c3dc2| f2e2d2|(cd) cB c2|g2 (ge) cA| d2(dB) GE| FF EF Ac|f4z2:|